!!!OTL: 560b. Gott wird uns zusammenfuehren.
!!!ARE: Europa, Mitteleuropa, Deutschland, Lahngegend; Westfalen
!!!SCT: E0560B
!!!TXL: @@DE
!!!YEM: Copyright 1995, estate of Helmut Schaffrath.
**kern	**text
*ICvox	*
!! Mixed meters:  3/4; 4/4
*M3/4	*
*k[]	*
*C:	*
!LO:TX:a:t=Etwas langsam.	!
!LO:TX:a:t=Lahngegend und Weſtſalen.	!
{8g	Jch
=1	=1
8g	gieng
16aL	einſtmals
16gJ	.
4.e	.
8e	ums
=2	=2
8e	Haus
8g	her-
4.d}	-um
{8g	und
=3	=3
8cc	ſchlich
16bL	mich
16aJ	.
(4g	an
8a)	.
8f	den
=4	=4
!LO:N:vis=4	!
8f	La-
!LO:N:vis=4	!
8g	.
4d	-den:
8r}	.
{8g	'Schön
=5	=5
*M4/4	*
*met(c)	*
8.g	Schätʒelein,
16b	.
8dd	.
8dd	ſteh
8ddL	auf
8b	.
8gJ	.
8f	und
=6	=6
8eL	laß
8gJ	.
8.cc	mich
16dd	her-
4ee	-ein,
8r}	.
{8cc	ich
=7	=7
4a	kann
8cc	ja
8a	nicht
4g	länger
8a	.
8f	mehr
=8	=8
(4f	war-
4g)	.
4e	-ten.'
8r}	.
==	==
!!!AGN: Liebes - Lied
!!!ONB: ESAC (Essen Associative Code) Database: ERK1
!!!AMT: irregular
!!!AIN: vox
!!!EED: Helmut Schaffrath
!!!EEV: 1.0
!!!GTL: Liebeslieder [Neuere (aus dem 18. bis 19. Jahrh.) - Liebeslust]
!!!URL-scan: https://rosdok.uni-rostock.de/mcrviewer/recordIdentifier/rosdok_ppn745177662/iview2/phys_0391.iview2?x=-128.77276441889308&y=1485.1463156326208&scale=0.5870222003877485&rotation=0&layout=singlePageLayout
!!!ENC: Anna Maria Matuszewska
!!!EEV: 2024/10/12
*-	*-
